X: 37529
T: Slipslide
R: slip jig
M: 9/8
K: Bminor
|Fdc BFB B2A|Fdc Bde ~f2f|e>fe fBc dcB|EG^B Aaf ecA|
Fdc BFB B2A|Fdc Bde ~f2f|~b2a bff fed|FBd cBA B3||
|:e2d e2d ecA|d2e f2a g2f|e2d e2d ecA|agf gfe fed:|
~f2f edd edd|~f2f edd faa|~f2f edd edd|ecA ABA ecA|
~f2f edd edd|~f2f edd faa|~f2f edd edd|ecA ABA GFE||

